X:6650
T:The Convenience Reel
O:england
M:C
L:1/8
C:Traditional
R:Reel
K:D
dA ~A2 dA ~A2 | GAFA EADA | dA ~A2 dA ~A2 | FAEA D3 A :||
df ~f2 df ~f2 | ecAg gece | df ~f2 dfed | [1 cABc d3 A :|| [2 cABc defg
|]
a2 ag efge | cege cege | a2 ag efge | Addc defg |
aA ~A2 aAaA | gA ~A2 gAgA | fgaf gbag | fgef d4 :||


